icons/bhi_view-module.svg

<svg xmlns="http://www.w3.org/2000/svg" viewBox="0 0 512 512" enable-background="new 0 0 512 512"><path d="M32 224h128v-192h-128v192zm0 224h128v-192h-128v192zm160 0h128v-192h-128v192zm160 0h128v-192h-128v192zm-160-224h128v-192h-128v192zm160-192v192h128v-192h-128z"/></svg>

<?xml version="1.0" encoding="utf-8"?>
<!-- Generator: Adobe Illustrator 19.2.0, SVG Export Plug-In . SVG Version: 6.00 Build 0)  -->
<svg version="1.1" id="Layer_1" xmlns="http://www.w3.org/2000/svg" xmlns:xlink="http://www.w3.org/1999/xlink" x="0px" y="0px"
	 viewBox="0 0 512 512" enable-background="new 0 0 512 512" xml:space="preserve">
<path d="M32,224h128V32H32V224z M32,448h128V256H32V448z M192,448h128V256H192V448z M352,448h128V256H352V448z M192,224h128V32H192
	V224z M352,32v192h128V32H352z"/>
</svg>
